X: 31746
T: Pat Tierney's
R: reel
M: 4/4
K: Bminor
~f3 e ~f3 e|dffe dB ~B2|ceed cABc|dBcA BAFA|
~f3 e fgfe|dffe dB ~B2|ceed cABc|1 dBcA ~B3 e|2 dBcA ~B3 z||
B/c/d cB A2 A2-|-ABcd cBBA|B/c/d cB A2 A2-|-ABc/B/A ~B3 z|
B/c/d cB A2 A2-|-ABcd cBBA|B/c/d cB A2 A2-|-ABc/B/A ~B3 e||

